X: 2383
T: Thro' the warl'd wou'd I gae we the Lad I Like. a Reel.
%R: reel
B: Niel Gow & Sons "Complete Repository" v.2 p.38 #3
Z: 2021 John Chambers <jc:trillian.mit.edu>
M: C
L: 1/8
K: D
% - - - - - - - - - -
% Voice 1 formatted for regularity.
V: 1 staves=2
f |\
~d3f B/B/B e2 | d3g f/f/f Tf2 | gfed cdef | dgfe d2D :: f | dDAF BEEe | dDAF dDAf |
dDAF BEEe | d>B AF D2- Df || dDAF BEEe | dDAF AgTf>e | dBAF E/E/E (.B.E) | dgTf>e d2-d |]
% - - - - - - - - - -
% Voice 2 preserves the book's staff layout.
V: 2 clef=bass middle=d
z | d2d2 e2e2 | d2d2 d2d2 | g2f2 e2e2 | d2A2 D2D :: z | d2d2 e2e2 | d2d2 d2d2 |
d2d2 e2e2 | d2A2 D2D2 || d2d2 e2e2 | d2d2 c2d2 | g2f2 e2e2 | d2A2 D2D |]


